X:1
T:Mozart Menuet KV 8
T:Mozart Menuet KV 8
T:W. A. Mozart
T:Menuet II
C:W. A. Mozart
%%score 1 ( 2 3 )
L:1/8
M:3/4
K:Bb
V:1 treble nm="Piano"
V:2 bass nm="Klavier"
V:3 bass 
V:1
 z6 |:S[Q:1/4=165] !2!!1!B4{e} (3(dcB) |{=e} f2 f2 f2 |{a} !3!b2 b2 b2 | (ba) f4 | %5
 (!3!^f<!5!g) (=B<c) (!4!f<g) | (!3!=e<!5!f) (A<B) (!4!e<f) | !1!!3![Ac][Bd] [ce]2 [Bd]2 | %8
{d} [Ac]6 :: !1!f4{b} (3(agf) | !2!=e2 (!3!e2 _e2) | !1!d!4!f g2 !2!B2 | (!4!BA) (GF) (!2!=EF) | %13
 !1!F4{B} (3(AGF) | !2!=E2 (!3!E2 _E2) | !1!D!4!F G2 !2!B,2 | z6 | B4{d} (3(dcB) |{=e} f2 .f2 .f2 | %19
{a} b2 b2 b2 | (ba) f4 | (^f<g) (=B<c) (f<g) | (=e<f) (A<B) (e<f) | %23
{c} !1!!3![c_e]2 !2!!4![Bd]2 !1!!3![Ac]2 | (!2!BF) (!3!dB) (!4!b!1!f) | (!3!^f<!5!g) (=B<c) (f<g) | %26
 (=e<f) (A<B) (e<f) |{f} [c_e]2 [Bd]2 [Ac]2 | [DFB]6!fine! :: %29
[K:Db][M:3/4][Q:1/4=120] !2!B,>=A, B,>!1!C !2!D>=E | !4!F>!3!=E !1!F>=G =A>B | %31
 c>=d !3!e>!4!_g f>e |{e} d4 c2 | !1!!4![Ge]>!1!!3![Fd] !1!!4![Fd]4 | [Ge]>[Fd] [Fd]4 | %35
 !1!c2 (3!3!g!1!f!3!e (3dc!2!B | (!3!B4 =A2) :: !2!D>C D>E F>G | !3!A>!1!=G A>B c>!1!A | %39
 !2!d>e !1!f>g a>_c | !2!_c4 !1!B2 |{f} e/=d/e/f/ !2!!1!e7/2 !4!b/ | (!3!b2 !1!e7/2) !3!b/ | %43
 !4!b=g e2 !2!d2 | (!3!d4 !2!c2) | [Ge]>[Fd] [Fd]4 | [Ge]>[Fd] [Fd]4 | %47
 (3!1!c!5!ge (3!2!d!4!fB (3!3!c!5!e!1!=A | B6!D.S.! :| %49
V:2
 z6 |: !2!B,2 B,2 B,2 | !3!A,2 A,2 A,2 | !1!G,2 G,2 G,2 | F,2 F,2 F,2 | !3!E,2 E,2 E,2 | %6
 !4!D,2 D,2 D,2 | F,2 !4!A,,2 !3!B,,2 | !1!F,2 !2!C,2 F,,2 :: !3!F,2 !2!F,2 F,2 | %10
 !1!G,2 (!3!G,2 A,2) | B,2 (!3!E,2 =E,2) | F,4 F,,2 | !1!F,2 !2!F,2 F,2 | !1!G,2 (G,,2 A,,2) | %15
 B,,2 E,2 =E,2 | (!3!B,A,) F,4 | B,,2 B,2 B,2 | !3!A,2 A,2 !2!A,2 | !1!G,2 !2!=E,2 !3!C,2 | %20
 !5!F,,2 F,E, D,2 | E,2 E,2 E,2 | D,2 D,2 D,2 | E,2 F,2 F,,2 | B,,4 !1!D,2 | !2!E,2 E,2 E,2 | %26
 !3!D,2 D,2 D,2 | E,2 F,2 F,,2 | B,,2 F,,2 B,,,2 ::[K:Db][M:3/4] !2!B,,>=A,, B,,>C, !3!D,>=E, | %30
 F,4 _E,>D, | !1!C,>B,, =A,,2 F,,2 | B,,>C, !3!D,>E, F,2 | !1!!5![=A,,=A,]2 !4!!1![B,,B,]4 | %34
 [=A,,=A,]2 [B,,B,]4 | !3!E,4 =E,2 | F,>F, E,>=A,, F,,2 :: !3!D,>C, D,>E, F,>!3!G, | A,4 G,2 | %39
 !1!F,>!2!E, D,2 D,2 | !1!G,>!2!F, !1!G,D, B,,G,, |[K:treble] (3!4!E!2!=G!1!B (3EGB (3EGB | %42
 (3E=GB (3EGB (3EGB | (3E=GB (3EGB (3EGB | !2!!1!A4 !5!A,2 |[K:bass] [=A,,=A,]2 [B,,B,]4 | %46
 [=A,,=A,]2 [B,,B,]4 | E,2 F,2 F,,2 | B,,2 F,,2 B,,,2 :| %49
V:3
 x6 |: x6 | x6 | x6 | x6 | x6 | x6 | x6 | x6 :: x6 | x6 | x6 | x6 | x6 | x6 | x6 | F,2 F,,2 F,,2 | %17
 x6 | x6 | x6 | x6 | x6 | x6 | x6 | x6 | x6 | x6 | x6 | x6 ::[K:Db][M:3/4] x6 | x6 | x6 | x6 | x6 | %34
 x6 | x6 | x6 :: x6 | x6 | x6 | x6 |[K:treble] x6 | x6 | x6 | x6 |[K:bass] x6 | x6 | x6 | x6 :| %49

